!!!COM: Palestrina, Giovanni Perluigi da
!!!OPR: Veni creator Spiritus
!!!OTL: Gloria
**kern	**kern	**kern	**kern	**kern	**kern
*Ibass	*Itenor	*Itenor	*Icalto	*Icant	*Icant
!Bassus	!Tenor 2	!Tenor 1	!Altus	!Cantus 2	!Cantus 1
*clefF4	*clefGv2	*clefGv2	*clefG2	*clefG2	*clefG2
*k[]	*k[]	*k[]	*k[]	*k[]	*k[]
*G:mix	*G:mix	*G:mix	*G:mix	*G:mix	*G:mix
*M4/2	*M4/2	*M4/2	*M4/2	*M4/2	*M4/2
=1	=1	=1	=1	=1	=1
0r	0g	0G	0b	0dd	0r
=2	=2	=2	=2	=2	=2
0r	1g	1c	1cc	1ee	0r
.	2a	2A	2cc	2ee	.
.	2a	2A	2cc	2ee	.
=3	=3	=3	=3	=3	=3
0r	2f	2d	2a	2dd	0r
.	2g	2G	2b-	2dd	.
.	2f	2d	2a	2.dd	.
.	2g	2B-	2d	.	.
.	.	.	.	4dd	.
=4	=4	=4	=4	=4	=4
0r	2a	2A	2e	2cc	0r
.	1e	1A	1a	1cc	.
.	2e	2A	2a	2cc	.
=5	=5	=5	=5	=5	=5
0r	2f#	2d	2a	2dd	0r
.	1g	2G	2b	2dd	.
.	.	1d	1a	1dd	.
.	2f#	.	.	.	.
=6	=6	=6	=6	=6	=6
0C	4g	1c	2cc	0ee	0g
.	4f	.	.	.	.
.	4e	.	4c	.	.
.	4d	.	4d	.	.
.	2c	1r	4e	.	.
.	.	.	4f	.	.
.	2c	.	2g	.	.
=7	=7	=7	=7	=7	=7
1F	1c	0r	1f	0r	1a
1D	1d	.	1f	.	1a
=8	=8	=8	=8	=8	=8
2G	2B	2r	1d	2r	2g
1G	1B	1d	.	1dd	1g
.	.	.	1r	.	.
2G	2B	2G	.	2dd	2g
=9	=9	=9	=9	=9	=9
2.D	2.d	2.A	0r	2.dd	2.f#
4D	4d	4A	.	4dd	4f#
1D	2d	1A	.	1dd	1f#
.	2A	.	.	.	.
=10	=10	=10	=10	=10	=10
2C	0r	1c	2.e	2ee	2g
1c	.	.	.	1ee	1g
.	.	.	4d	.	.
.	.	1r	2c	.	.
2B	.	.	2d	2dd	2g
=11	=11	=11	=11	=11	=11
1A	0r	0r	1e	1cc	1a
1F	.	.	1f	1cc	1a
=12	=12	=12	=12	=12	=12
2G	2r	0r	2d	2b	2g
2C	2c	.	2c	2ee	2g
2C	2c	.	2e	2ee	2g
2G	2B	.	2g	2dd	2g
=13	=13	=13	=13	=13	=13
4F	4A	2r	1a	2ff	0cc
4G	4B	.	.	.	.
4A	4c	2e	.	2.ee	.
4B	4d	.	.	.	.
1c	4e	2e	[1g	.	.
.	4f	.	.	4dd	.
.	[2g	2e	.	[2cc	.
=14	=14	=14	=14	=14	=14
0G	2g]	1d	0g]	2cc]	0dd
.	2G	.	.	4b	.
.	.	.	.	4a	.
.	1d	2G	.	1b	.
.	.	[2g	.	.	.
=15	=15	=15	=15	=15	=15
0C	1r	4g]	2.e	1ee	0cc
.	.	4f	.	.	.
.	.	4e	.	.	.
.	.	4d	4f	.	.
.	[1c	2e	2g	2r	.
.	.	[2g	[2cc	[2ee	.
=16	=16	=16	=16	=16	=16
0r	2c]	2g]	2cc]	2ee]	0r
.	2c	2g	2cc	2ee	.
.	2G	2.g	2b	2dd	.
.	[2g	.	[2b	[2dd	.
.	.	8f	.	.	.
.	.	8e	.	.	.
=17	=17	=17	=17	=17	=17
0r	2g]	1d	2b]	2dd]	0r
.	2f#	.	2a	2dd	.
.	2g	1r	2b	2ee	.
.	[2a	.	[2cc	[2ff	.
=18	=18	=18	=18	=18	=18
0r	4a]	1r	4cc]	4ff]	0r
.	4g	.	4b	4ee	.
.	4g	.	4b	1ee	.
.	8f	.	8a	.	.
.	8e	.	8g	.	.
.	1f	2r	1a	.	.
.	.	[2a	.	2dd	.
=19	=19	=19	=19	=19	=19
0r	1e	2a]	1b	1ee	0r
.	.	2g#	.	.	.
.	2r	1a	2r	2r	.
.	[2a	.	[2cc	[2ee	.
=20	=20	=20	=20	=20	=20
0r	2a]	1e	2cc]	2ee]	0r
.	2g#	.	2b	2ee	.
.	1a	1A	1cc	1ee	.
=21	=21	=21	=21	=21	=21
0r	2e	2r	2b	2ee	0r
.	2.f	2.d	2.a	2.dd	.
.	4f	4d	4a	4dd	.
.	2g	2G	2b-	2dd	.
=22	=22	=22	=22	=22	=22
0r	0e	4A	2a	1cc	0r
.	.	4B	.	.	.
.	.	4c	4g	.	.
.	.	4d	4f	.	.
.	.	4e	1g	2.b	.
.	.	4f	.	.	.
.	.	[2g	.	.	.
.	.	.	.	4cc	.
=23	=23	=23	=23	=23	=23
0r	0d	2g]	1.a	0dd	0r
.	.	4f#	.	.	.
.	.	4e	.	.	.
.	.	1f#	.	.	.
.	.	.	2b	.	.
=24	=24	=24	=24	=24	=24
2r	1c	2g	2cc	1ee	2r
2.c	.	2.e	2.g	.	2.cc
.	1r	.	.	1r	.
4c	.	4e	4g	.	4cc
2F	.	2f	2a	.	2cc
=25	=25	=25	=25	=25	=25
1c	1r	1e	1cc	0r	1g
1G	2r	[1d	1b	.	1g
.	2g	.	.	.	.
=26	=26	=26	=26	=26	=26
1D	2f	2d]	0r	1.dd	1a
.	4d	1f	.	.	.
.	4e	.	.	.	.
1d	4f	.	.	.	1a
.	4g	.	.	.	.
.	4a	2d	.	2ff	.
.	4f	.	.	.	.
=27	=27	=27	=27	=27	=27
1c	1g	2e	0r	1ee	1cc
.	.	1c	.	.	.
1F	1a	.	.	1ff	1cc
.	.	[2f	.	.	.
=28	=28	=28	=28	=28	=28
1.D	1.f	4f]	1.a	1.ff	1.dd
.	.	4e	.	.	.
.	.	4d	.	.	.
.	.	4c	.	.	.
.	.	2d	.	.	.
2D	2f	2d	2a	2ff	2dd
=29	=29	=29	=29	=29	=29
1F	2f	1A	1a	1ff	1cc
.	4c	.	.	.	.
.	4d	.	.	.	.
2C	4e	1c	1g	1ee	1cc
.	4f	.	.	.	.
[2c	2e	.	.	.	.
=30	=30	=30	=30	=30	=30
2c]	0d	0G	0g	0r	0dd
4B	.	.	.	.	.
4A	.	.	.	.	.
1B	.	.	.	.	.
=31	=31	=31	=31	=31	=31
1.c	4c	2.g	2.e	0r	1.ee
.	4d	.	.	.	.
.	4e	.	.	.	.
.	4f	4f	8d	.	.
.	.	.	8c	.	.
.	2g	2e	2cc	.	.
2c	2g	2c	2cc	.	2ee
=32	=32	=32	=32	=32	=32
1G	1g	2d	2b	2r	1dd
.	.	2.g	2.b	2.dd	.
1r	1r	.	.	.	1r
.	.	4g	4b	4dd	.
.	.	2e	2cc	2ee	.
=33	=33	=33	=33	=33	=33
0r	2r	0f	2.a	1cc	0r
.	2.a	.	.	.	.
.	.	.	4b	.	.
.	.	.	2.cc	4a	.
.	4a	.	.	4b	.
.	2a	.	.	4cc	.
.	.	.	8b	4dd	.
.	.	.	8a	.	.
=34	=34	=34	=34	=34	=34
0r	2g	2e	2b	1ee	0r
.	2c	1e	2cc	.	.
.	2c	.	1g	1gg	.
.	2d	2B	.	.	.
=35	=35	=35	=35	=35	=35
0r	2e	4c	2g	1ee	0r
.	.	4d	.	.	.
.	2c	4e	1cc	.	.
.	.	4f	.	.	.
.	1G	2g	.	2.dd	.
.	.	2g	2b	.	.
.	.	.	.	4dd	.
=36	=36	=36	=36	=36	=36
2r	2r	2c	1cc	1ee	2r
2.c	2.g	2.e	.	.	2.cc
.	.	.	1r	1r	.
4c	4g	4e	.	.	4cc
2A	2a	2f	.	.	2cc
=37	=37	=37	=37	=37	=37
0B-	2g	0d	0r	0r	0dd
.	1f	.	.	.	.
.	4e	.	.	.	.
.	4d	.	.	.	.
=38	=38	=38	=38	=38	=38
2A	2.c	2a	2r	0r	2ee
1A	.	1a	1cc	.	1ee
.	4d	.	.	.	.
.	1e	.	.	.	.
2E	.	2g	2b	.	2ee
=39	=39	=39	=39	=39	=39
4F	0r	2f	1a	0r	1.cc
4G	.	.	.	.	.
4A	.	4e	.	.	.
4B	.	4d	.	.	.
2c	.	2e	1g	.	.
2c	.	2e	.	.	2cc
=40	=40	=40	=40	=40	=40
0G	0r	[0d	0g	1r	0b
.	.	.	.	[1dd	.
=41	=41	=41	=41	=41	=41
0D	0A	1d]	0f	1dd]	0a
.	.	1d	.	[1ff	.
=42	=42	=42	=42	=42	=42
0BB-	0B-	2.f	0d	0ff]	0dd
.	.	4e	.	.	.
.	.	4d	.	.	.
.	.	4c	.	.	.
.	.	2d	.	.	.
=43	=43	=43	=43	=43	=43
0C	2G	1e	0g	0ee	0cc
.	4c	.	.	.	.
.	4d	.	.	.	.
.	4e	1c	.	.	.
.	4f	.	.	.	.
.	[2g	.	.	.	.
=44	=44	=44	=44	=44	=44
0G	2g]	1d	0g	0dd	0b
.	4f	.	.	.	.
.	4e	.	.	.	.
.	1d	1G	.	.	.
=45	=45	=45	=45	=45	=45
[0C	2.c	2r	0g	1ee	0cc
.	.	2c	.	.	.
.	4d	.	.	.	.
.	[1e	2c	.	2r	.
.	.	2c	.	2cc	.
=46	=46	=46	=46	=46	=46
0C]	1e]	2.g	2r	2cc	0r
.	.	.	2g	2cc	.
.	.	4f	.	.	.
.	2r	4e	2g	2.gg	.
.	.	4c	.	.	.
.	2c	[2e	2g	.	.
.	.	.	.	4ff	.
=47	=47	=47	=47	=47	=47
0r	2c	4e]	1cc	4ee	0r
.	.	4f	.	4dd	.
.	2c	2g	.	2ee	.
.	2.g	1G	[1b	2dd	.
.	.	.	.	[2gg	.
.	4f	.	.	.	.
=48	=48	=48	=48	=48	=48
0r	4e	2r	1b]	4gg]	0r
.	4d	.	.	4ff	.
.	2e	1g	.	4ee	.
.	.	.	.	4dd	.
.	2c	.	[1cc	1ee	.
.	[2c	2g	.	.	.
=49	=49	=49	=49	=49	=49
0r	2c]	2a	2cc]	1ee	0r
.	2c	2.g	2cc	.	.
.	2.d	.	2b	[1dd	.
.	.	4f	.	.	.
.	.	2f	[2a	.	.
.	4c	.	.	.	.
=50	=50	=50	=50	=50	=50
0r	2B	2d	4a]	2dd]	0r
.	.	.	4g	.	.
.	2c	1e	1g	2cc	.
.	1A	.	.	1cc	.
.	.	4d	2f#	.	.
.	.	4c	.	.	.
=51	=51	=51	=51	=51	=51
2r	2G	0d	1g	2r	1b
2G	2g	.	.	2dd	.
2G	2g	.	2r	2dd	2b
2G	2g	.	2g	2dd	2b
=52	=52	=52	=52	=52	=52
2.c	1e	2r	2g	0ee	0cc
.	.	2c	2g	.	.
4B	.	.	.	.	.
4A	1e	2c	1a	.	.
4G	.	.	.	.	.
2A	.	2c	.	.	.
=53	=53	=53	=53	=53	=53
2F	0r	1c	2cc	1ff	2a
1F	.	.	1cc	.	1a
.	.	2A	.	1ff	.
2F	.	2A	2cc	.	2a
=54	=54	=54	=54	=54	=54
2.G	0r	2B	1.b	1dd	0g
.	.	2.d	.	.	.
4F	.	.	.	.	.
1E	.	.	.	1ee	.
.	.	8c#	.	.	.
.	.	8B	.	.	.
.	.	2c#	2e	.	.
=55	=55	=55	=55	=55	=55
0D	2r	1d	2r	1a	0f#
.	2.d	.	1a	.	.
.	.	1A	.	2r	.
.	4c	.	.	.	.
.	4d	.	2a	[2dd	.
.	4e	.	.	.	.
=56	=56	=56	=56	=56	=56
1.D	1.f	1.d	4a	4dd]	1.a
.	.	.	4g	4cc	.
.	.	.	4f	4dd	.
.	.	.	4e	4ee	.
.	.	.	2d	2ff	.
2D	2d	2d	[2a	2ff	2a
=57	=57	=57	=57	=57	=57
0A	[0e	2.c	4a]	2ee	0cc
.	.	.	8g	.	.
.	.	.	8f	.	.
.	.	.	2e	4a	.
.	.	4d	.	4b	.
.	.	2e	4A	4cc	.
.	.	.	4B	4dd	.
.	.	2A	4c	4ee	.
.	.	.	4d	4ff	.
=58	=58	=58	=58	=58	=58
2.E	1e]	2B	4e	2.gg	0b
.	.	.	4f	.	.
.	.	2.G	2.g	.	.
4F	.	.	.	8ff	.
.	.	.	.	8ee	.
1G	2.B	.	.	[1dd	.
.	.	4A	4d	.	.
.	.	4B	[2g	.	.
.	4c	4G	.	.	.
=59	=59	=59	=59	=59	=59
0D	0d	0A	2g]	0dd]	0a
.	.	.	4f#	.	.
.	.	.	4e	.	.
.	.	.	1f#	.	.
=60	=60	=60	=60	=60	=60
0G	0d	0B	0g	0dd	0g
=61	=61	=61	=61	=61	=61
0G	1r	0d	0b	0dd	0g
.	1g	.	.	.	.
=62	=62	=62	=62	=62	=62
1C	1e	1c	1cc	1ee	1g
2F	1c	2A	2cc	2ff	2a
2F	.	2A	2c	2ff	2a
=63	=63	=63	=63	=63	=63
2D	2r	2d	2d	2ff	2a
2A	2A	2c#	2e	2ee	2a
1D	2A	1d	1f#	1dd	1a
.	2A	.	.	.	.
=64	=64	=64	=64	=64	=64
1G	2B	2d	1g	1b	1g
.	1G	2d	.	.	.
1C	.	2c	1e	1cc	1g
.	[2c	[2G	.	.	.
=65	=65	=65	=65	=65	=65
1G	2c]	4G]	1d	1dd	1g
.	.	4A	.	.	.
.	2B	4B	.	.	.
.	.	4c	.	.	.
[1D	1A	2.d	1a	[1dd	[1f#
.	.	8c	.	.	.
.	.	8B	.	.	.
=66	=66	=66	=66	=66	=66
2D]	1d	2A	2a	2dd]	2f#]
2D	.	2B	2.d	2dd	2f#
1D	1d	1A	.	1dd	1f#
.	.	.	8c	.	.
.	.	.	8B	.	.
.	.	.	2A	.	.
=67	=67	=67	=67	=67	=67
0G	1d	4G	1B	1dd	1g
.	.	4A	.	.	.
.	.	4B	.	.	.
.	.	4c	.	.	.
.	2r	1d	1b	2r	2r
.	2G	.	.	2dd	2g
=68	=68	=68	=68	=68	=68
0r	1c	0r	1cc	1ee	1g
.	2A	.	2cc	2ee	2a
.	2d	.	2f	2dd	2a
=69	=69	=69	=69	=69	=69
0r	2d	0r	2d	2ff	2a
.	2c#	.	2e	2ee	2a
.	1d	.	1f#	1dd	1a
=70	=70	=70	=70	=70	=70
2r	1e	2r	1g	2b	2g
1c	.	1e	.	1cc	1g
.	1r	.	1r	.	.
2G	.	2d	.	2b	2g
=71	=71	=71	=71	=71	=71
1G	1r	1d	1r	4b	1g
.	.	.	.	4cc	.
.	.	.	.	4dd	.
.	.	.	.	4ee	.
[1F	2r	[1A	[1a	2ff	[1cc
.	[2c	.	.	[2ff	.
=72	=72	=72	=72	=72	=72
2F]	2c]	2A]	2a]	2ff]	2cc]
2C	2e	2c	2g	2ee	2cc
1C	1e	1c	1g	1ee	1cc
=73	=73	=73	=73	=73	=73
2.G	2.d	2.B	2.g	2.gg	2.dd
4G	4d	4B	4g	4gg	4dd
2D	2d	2A	2a	2ff#	2dd
2D	2d	2d	2a	2ff#	2dd
=74	=74	=74	=74	=74	=74
1G	1B	2d	1g	1gg	1dd
.	.	1G	.	.	.
1C	1c	.	1g	1ee	1cc
.	.	2c	.	.	.
=75	=75	=75	=75	=75	=75
1F	1c	4A	1a	1ff	1cc
.	.	4B	.	.	.
.	.	4c	.	.	.
.	.	4d	.	.	.
2C	2c	2e	1g	1ee	1cc
2c	2e	2g	.	.	.
=76	=76	=76	=76	=76	=76
1c	1e	1g	0r	0r	0r
2B	2d	2g	.	.	.
2G	2B	2g	.	.	.
=77	=77	=77	=77	=77	=77
2.A	2.c	2.e	1r	0r	0r
4A	4B	4f	.	.	.
2G	2B	2e	2r	.	.
[2F	[2A	[2d	2a	.	.
=78	=78	=78	=78	=78	=78
4F]	4A]	4d]	1a	1ff	0r
4E	4G	4c	.	.	.
4D	4F	1c	.	.	.
4C	4E	.	.	.	.
1D	1F	.	1f	1ff	.
.	.	2B	.	.	.
=79	=79	=79	=79	=79	=79
0C	1G	2c	2r	2ee	0r
.	.	2e	2g	2cc	.
.	1r	2.c	2.cc	2.ee	.
.	.	4c	4cc	4ee	.
=80	=80	=80	=80	=80	=80
0r	0r	2d	2b	2dd	0r
.	.	2.f	2.a	2.cc	.
.	.	4g	4g	4b	.
.	.	2e	[2g	4b	.
.	.	.	.	8a	.
.	.	.	.	8g	.
=81	=81	=81	=81	=81	=81
0r	1r	1d	4g]	1a	0r
.	.	.	8f#	.	.
.	.	.	8e	.	.
.	.	.	2f#	.	.
.	2r	2r	1g	1g	.
.	[2c	[2e	.	.	.
=82	=82	=82	=82	=82	=82
1.C	2c]	2e]	2r	1.ee	1.cc
.	2c	2e	1g	.	.
.	2.c	2.e	.	.	.
2C	.	.	2g	2ee	2cc
.	4d	4d	.	.	.
=83	=83	=83	=83	=83	=83
1C	1.e	1c	1g	1ee	1cc
1E	.	2B	2e	1ee	1g
.	[2B	[2G	4d	.	.
.	.	.	4c	.	.
=84	=84	=84	=84	=84	=84
0G	4B]	4G]	4B	1dd	0g
.	4c	4A	4A	.	.
.	2d	4B	2G	.	.
.	.	4c	.	.	.
.	2B	1d	1g	1dd	.
.	2G	.	.	.	.
=85	=85	=85	=85	=85	=85
1D	2r	1d	2f	2r	2a
.	1d	.	1f	1dd	1a
1r	.	1r	.	.	.
.	2A	.	2e	2cc	2a
=86	=86	=86	=86	=86	=86
0r	2A	0r	2e	2cc	2a
.	2d	.	2f	2dd	2a
.	2c	.	1g	2ee	1cc
.	2c	.	.	2ee	.
=87	=87	=87	=87	=87	=87
0r	4F	0r	1a	2ff	1cc
.	4G	.	.	.	.
.	4A	.	.	1ee	.
.	4B	.	.	.	.
.	1c	.	1g	.	1cc
.	.	.	.	4dd	.
.	.	.	.	4cc	.
=88	=88	=88	=88	=88	=88
2r	1G	2r	2g	1b	2dd
2G	.	1g	2g	.	2dd
[1d	1r	.	[1a	1r	1dd
.	.	[2f#	.	.	.
=89	=89	=89	=89	=89	=89
2d]	0r	2f#]	2a]	0r	1dd
2G	.	2g	2b	.	.
2A	.	2e	2a	.	2cc
2F	.	2f	2a	.	2cc
=90	=90	=90	=90	=90	=90
1c	1r	1e	1g	1r	1cc
1C	2r	1e	1g	2r	1cc
.	[2G	.	.	2cc	.
=91	=91	=91	=91	=91	=91
1G	2G]	1d	1g	1b	1dd
.	1g	.	.	.	.
1D	.	1d	1a	1a	1dd
.	2f#	.	.	.	.
=92	=92	=92	=92	=92	=92
1G	0g	1d	2.g	1b	1dd
.	.	.	4f	.	.
[1C	.	[1c	4e	4cc	[1ee
.	.	.	4d	4dd	.
.	.	.	2c	4ee	.
.	.	.	.	4ff	.
=93	=93	=93	=93	=93	=93
1C]	1e	1c]	1.cc	1gg	1ee]
1C	1e	1G	.	2gg	1ee
.	.	.	2cc	[2gg	.
=94	=94	=94	=94	=94	=94
0D	1A	0d	0a	2gg]	0dd
.	.	.	.	4ff	.
.	.	.	.	4ee	.
.	[1a	.	.	1ff	.
=95	=95	=95	=95	=95	=95
0A	2a]	1.e	0a	0ee	0cc#
.	4g	.	.	.	.
.	4f	.	.	.	.
.	1e	.	.	.	.
.	.	[2A	.	.	.
=96	=96	=96	=96	=96	=96
1D	0d	2A]	1a	1ff#	0dd
.	.	1d	.	.	.
1G	.	.	1b	1gg	.
.	.	[2g	.	.	.
=97	=97	=97	=97	=97	=97
[0C	1.c	2g]	0cc	1.gg	0ee
.	.	2f	.	.	.
.	.	[1e	.	.	.
.	2d	.	.	2ff	.
=98	=98	=98	=98	=98	=98
0C]	2e	2e]	1g	0ee	0cc
.	2f	2d	.	.	.
.	[1g	1c	2.e	.	.
.	.	.	4f	.	.
=99	=99	=99	=99	=99	=99
0G	2g]	[0d	1g	[0dd	0b
.	4f	.	.	.	.
.	4e	.	.	.	.
.	2d	.	2r	.	.
.	2G	.	[2g	.	.
=100	=100	=100	=100	=100	=100
0r	2r	1d]	4g]	1dd]	1a
.	.	.	4f	.	.
.	2d	.	2f	.	.
.	2c#	1r	2e	1r	2a
.	2d	.	2f#	.	2a
=101	=101	=101	=101	=101	=101
0r	4G	2r	2g	1b	1.dd
.	4A	.	.	.	.
.	4B	2g	2d	.	.
.	4c	.	.	.	.
.	2d	2f#	1d	2a	.
.	2G	2g	.	2b	2dd
=102	=102	=102	=102	=102	=102
0r	2.A	2e	0r	2cc	0cc
.	.	2f	.	2a	.
.	4B	.	.	.	.
.	1c	1e	.	1g	.
!! coda
*Ibass	*Itenor	*Itenor	*Icalto	*Icant	*Icant
!Bassus	!Tenor 2	!Tenor 1	!Altus	!Cantus 2	!Cantus 1
*clefF4	*clefGv2	*clefGv2	*clefG2	*clefG2	*clefG2
*k[]	*k[]	*k[]	*k[]	*k[]	*k[]
*G:mix	*G:mix	*G:mix	*G:mix	*G:mix	*G:mix
*M3/2	*M3/2	*M3/2	*M3/2	*M3/2	*M3/2
=103	=103	=103	=103	=103	=103
2G	1r	2d	2g	2dd	2b
2.G	.	2.d	2.g	2.dd	2.b
.	2r	.	.	.	.
4G	.	4d	4g	4dd	4b
=104	=104	=104	=104	=104	=104
1c	1r	2c	1g	1ee	1cc
.	.	1e	.	.	.
2c	2r	.	2cc	2gg	2r
=105	=105	=105	=105	=105	=105
2F	1r	2a	2cc	2ff	1r
1c	.	1g	1cc	1ee	.
.	2r	.	.	.	2r
=106	=106	=106	=106	=106	=106
2d	1r	2f	2a	1dd	1r
1A	.	2e	2a	.	.
.	2r	2e	2a	2cc#	2r
=107	=107	=107	=107	=107	=107
2G	2G	2g	2d	1.dd	2b
2r	2.G	2.g	2.d	.	2.b
2r	.	.	.	.	.
.	4G	4g	4d	.	4b
=108	=108	=108	=108	=108	=108
1r	2c	1g	1e	2r	1cc
.	1c	.	.	1gg	.
2r	.	2e	2g	.	2cc
=109	=109	=109	=109	=109	=109
1r	2F	2f	2cc	2ff	2a
.	1f	2r	1cc	1ff	1a
2r	.	2r	.	.	.
=110	=110	=110	=110	=110	=110
1r	2g	1r	1b	1dd	2g
.	1e	.	.	.	1g
2r	.	2r	2g	2cc#	.
=111	=111	=111	=111	=111	=111
2r	1d	2r	1a	1dd	1f#
2r	.	2r	.	.	.
2D	2A	2d	2a	2dd	2f
=112	=112	=112	=112	=112	=112
2.D	2.A	2.d	2.f	2.ff	2.a
4D	4A	4d	4d	4ff	4a
2A	2A	2c	2e	2ee	2a
=113	=113	=113	=113	=113	=113
1F	1A	1c	1a	1ff	1cc
2C	2c	2e	2g	2ee	2cc
=114	=114	=114	=114	=114	=114
1E	1G	2g	2e	1ee	1b
.	.	2G	1g	.	.
[2G	[2B	4G	.	[2dd	[2b
.	.	4A	.	.	.
=115	=115	=115	=115	=115	=115
2G]	2B]	4B	2.g	2dd]	2b]
.	.	4G	.	.	.
1D	1d	1A	.	1dd	1a
.	.	.	8f#	.	.
.	.	.	8e	.	.
.	.	.	2f#	.	.
=116	=116	=116	=116	=116	=116
1G	1d	2B	[1.g	1b	[1.g
.	.	2r	.	.	.
2C	2c	2e	.	2cc	.
=117	=117	=117	=117	=117	=117
2.C	2.c	2.e	1.g]	2.ee	1.g]
4C	4c	4c	.	4ee	.
2G	2B	2d	.	2dd	.
=118	=118	=118	=118	=118	=118
2E	2B	2.g	[1.g	2ee	[1.g
2C	2c	.	.	2ee	.
.	.	4f	.	.	.
2E	2B	2e	.	[2gg	.
=119	=119	=119	=119	=119	=119
2G	2B	2d	1.g]	4gg]	1.g]
.	.	.	.	4ff	.
1C	1e	1c	.	2ee	.
.	.	.	.	2cc	.
=120	=120	=120	=120	=120	=120
1.G	1.d	1.B	1.g	1.dd	1.g
==	==	==	==	==	==
*-	*-	*-	*-	*-	*-
!!!CDT: 1525/^1526/-1594/2/2
!!!OCY: Italia
!!!AGN: Mass (Tenor)
!!!AST: renaissance, vocal
!!!ASW: Hymn
!!!PWK: Masses, Book 9
!!!RNB: Cadence finals: C,D
!!!YOR: Le Opere Complete, v. 25, p. 246
!!!YOO: Rome, Italy: Fratelli Scalera
!!!END: 1992//
!!!EED: John Miller
!!!YEC: Copyright 2000, John Miller
!!!YEN: United States of America
!!!YEM: Rights to all derivative electronic formats reserved.
!!!YEM: Refer to licensing agreement for further details.
!!!YEM: This file must be accompanied by the licensing agreement.
!!!YEM: A copy of the licensing agreement may be found at http://www.music-cog.ohio-state.edu/HumdrumDatabases/Palestrina/license.txt
!!!EMD: converted to Humdrum by Bret Aarden
